!!!OTL: ZU DES LEBENS FREUDEN SCHUF UNS DIE NATUR
!!!ARE: Europa, Mitteleuropa, Deutschland
!!!SCT: F0264
!!!YEM: Copyright 1995, estate of Helmut Schaffrath.
**kern
*ICvox
*Ivox
*M6/8
*k[f#]
*G:
=1
{4b
8b
4b
8cc
=2
4.dd
4b
8r}
=3
{4cc
8b
4cc
8dd
=4
4.b
4.r}
=5
{4b
8b
8.cc
16b
8cc
=6
4.dd
4.a}
=7
{4a
8dd
8.cc#
16b
8cc
=8
4.dd
4.r}
=9
{4a
8a
4b
8b
=10
4.cc
4.a}
=11
{4g
8g
8.a
16g
8a
=12
4.b
4.r}
=13
{4cc
8cc
4b
8b
=14
4ee
8a
4.a}
=15
{4a
8b
4cc
8dd
=16
4.b
4.r}
=17
{4cc
8cc
4b
8b
=18
2ee
8dd
8cc}
=19
{4b
8b
4cc
8a
=20
4.g
4.r}
==
!!!AGN: Jugend - Lied, Belehrung, Natur
!!!ONB: ESAC (Essen Associative Code) Database: FINK
!!!AMT: compound duple
!!!AIN: vox
!!!EED: Helmut Schaffrath
!!!EEV: 1.0
*-
